app/dist/common/images/varengold-bank-ag.svg

<svg height="18" viewBox="0 0 18 18" width="18" xmlns="http://www.w3.org/2000/svg"><path d="m0 0h18v18h-18z" fill="#5b6777"/><path d="m7.75 13-3.75-.7h2.5l-2.5-8.3zm2.5 0 3.75-.7h-2.5l2.5-8.3zm-1.25-.7-3.13-7.6 3.13 5.52 3.13-5.54-3.13 7.63z" fill="#f3f7fa"/></svg>

<!-- by TradingView --><svg width="18" height="18" viewBox="0 0 18 18" xmlns="http://www.w3.org/2000/svg"><path fill="#5B6777" d="M0 0h18v18H0z"/><path d="M7.75 13 4 12.3h2.5L4 4l3.75 9ZM10.25 13l3.75-.7h-2.5L14 4l-3.75 9ZM9 12.3 5.87 4.7 9 10.22l3.13-5.54L9 12.31Z" fill="#F3F7FA"/></svg>
